X:1
T:Sursum Corda (Sewall)
T:Frank Sewall (1837-1915)
T:Sursum Corda (Sewall)
T:Public Domain
C:Frank Sewall (1837-1915)
Z:Public Domain
%%score ( 1 2 ) ( 3 4 )
L:1/8
M:4/4
K:A
V:1 treble 
V:2 treble 
V:3 bass 
V:4 bass 
V:1
 C2 | E3 E [CF]3 [CF] | [^B,A]6 [B,A]2 | [Ec]4 [EB]2 [DB]2 | [CA]6 [CA]2 | %5
 [^B,G]3 [B,F] [CE]2 [B,^D]2 | [CE]6 [EF]2 | [EG]4 [EF]2 [^DF]2 | E6 E2 | %9
 [DB]3 [EB] [D^A][DB][Dc][DB] | [DB]>[CA] [CA]4 [CE]2 | [Ec]3 [Ec] [E^B][Ec][Ed][Ec] | %12
 [Ec]>[DB] [DB]4 [^DB]2 | [Ee]3 [Ee] [Fd][Cc][DB][EA] | [DG]>[^DF] [DF]4 [FA]2 | E2 C2 [DB]4 | %16
 [CA]6 |] %17
V:2
 C2 | E3 E x4 | x8 | x8 | x8 | x8 | x8 | x8 | E6 E2 | x8 | x8 | x8 | x8 | x8 | x8 | A4 x4 | x6 |] %17
V:3
 C,2 | E,3 E, [F,A,]2 [F,A,]2 | [^D,F,]6 [D,F,]2 | [E,A,]4 A,2 G,2 | [A,,A,]6 [F,,A,]2 | %5
 [F,,^D,]3 [F,,D,] [F,,E,]2 [F,,G,]2 | [C,E,]6 [^A,,C]2 | [B,,B,]4 [B,,A,]4 | [E,G,]6 [E,G,]2 | %9
 [E,G,]3 [E,G,] [E,F,][E,G,][E,A,][E,G,] | [A,,E,]>[A,,E,] [A,,E,]4 A,2 | %11
 [F,^A,]3 [F,A,] [F,G,][F,A,][F,B,][F,A,] | [B,,F,]>[B,,F,] [B,,F,]4 [A,,F,]2 | %13
 [G,,G,]3 [G,B,] [F,A,][E,G,][D,F,][C,E,] | [B,,^E,]>[^B,,A,] [B,,A,]4 [^D,^B,]2 | %15
 C2 A,2- A,2 G,2 | [A,,A,]6 |] %17
V:4
 C,2 | E,3 E, x4 | x8 | x4 E,4 | x8 | x8 | x8 | x8 | x8 | x8 | x6 A,2 | x8 | x8 | x8 | x8 | %15
 E,4 E,4 | x6 |] %17

